static/img/cube.svg

<svg width="13" height="14" viewBox="0 0 13 14" fill="none"
  xmlns="http://www.w3.org/2000/svg">
  <path d="M11.7538 3.95126C11.9211 3.87442 12.0617 3.75645 12.16 3.61054C12.2583 3.46463 12.3103 3.29653 12.3103 3.12505C12.3103 2.95357 12.2583 2.78547 12.16 2.63956C12.0617 2.49365 11.9211 2.37567 11.7538 2.29884L6.95069 0.0974684C6.81075 0.0333693 6.65646 0 6.50002 0C6.34358 0 6.18929 0.0333693 6.04935 0.0974684L1.2462 2.29884C1.07895 2.37567 0.938326 2.49365 0.840051 2.63956C0.741776 2.78547 0.689727 2.95357 0.689727 3.12505C0.689727 3.29653 0.741776 3.46463 0.840051 3.61054C0.938326 3.75645 1.07895 3.87442 1.2462 3.95126L6.04935 6.15263C6.18929 6.21673 6.34358 6.2501 6.50002 6.2501C6.65646 6.2501 6.81075 6.21673 6.95069 6.15263L11.7538 3.95126Z" fill="currentColor" />
  <path d="M7.07848 13.3891C6.99477 13.2516 6.95078 13.0968 6.95069 12.9393V7.6124C6.95079 7.44081 7.003 7.27264 7.10147 7.12672C7.19994 6.9808 7.34079 6.86289 7.50824 6.78619L11.5411 4.93785C11.6948 4.86746 11.8655 4.83423 12.0371 4.84132C12.2088 4.8484 12.3756 4.89557 12.5217 4.97833C12.6679 5.0611 12.7885 5.17673 12.8722 5.31424C12.9559 5.45175 12.9999 5.60659 13 5.76406V11.091C12.9999 11.2626 12.9477 11.4307 12.8492 11.5766C12.7507 11.7226 12.6099 11.8405 12.4425 11.9172L8.40958 13.7655C8.25591 13.8359 8.08516 13.8691 7.91355 13.862C7.74193 13.855 7.57513 13.8078 7.42898 13.725C7.28284 13.6423 7.16218 13.5266 7.07848 13.3891Z" fill="currentColor" />
  <path d="M0.96287 4.97833C1.13449 4.97125 1.30523 5.00448 1.45891 5.07487L5.49178 6.9232C5.65922 6.9999 5.80007 7.11781 5.89854 7.26374C5.99701 7.40966 6.04922 7.57783 6.04932 7.74941V13.0763C6.04923 13.2338 6.00524 13.3886 5.92154 13.5261C5.83783 13.6637 5.71718 13.7793 5.57103 13.862C5.42488 13.9448 5.25809 13.992 5.08647 13.9991C4.91485 14.0061 4.7441 13.9729 4.59043 13.9025L0.55756 12.0542C0.390115 11.9775 0.249269 11.8596 0.150797 11.7137C0.0523254 11.5677 0.000115828 11.3996 1.58649e-05 11.228V5.90107C0.000107582 5.7436 0.044094 5.58876 0.127801 5.45125C0.211509 5.31374 0.332161 5.19812 0.478309 5.11535C0.624457 5.03258 0.791253 4.98542 0.96287 4.97833Z" fill="currentColor" />
</svg>

<svg width="13" height="14" fill="none" xmlns="http://www.w3.org/2000/svg"><path d="M11.754 3.951a.981.981 0 0 0 .406-.34.868.868 0 0 0 .15-.486.868.868 0 0 0-.15-.485.981.981 0 0 0-.406-.341L6.95.097a1.084 1.084 0 0 0-.902 0L1.246 2.3a.981.981 0 0 0-.406.34.868.868 0 0 0-.15.486c0 .172.052.34.15.486a.981.981 0 0 0 .406.34L6.05 6.153a1.084 1.084 0 0 0 .902 0l4.803-2.202ZM7.078 13.39a.865.865 0 0 1-.127-.45V7.611c0-.171.052-.34.15-.485a.982.982 0 0 1 .407-.34l4.033-1.85a1.086 1.086 0 0 1 .98.041.965.965 0 0 1 .351.336.865.865 0 0 1 .128.45v5.327a.87.87 0 0 1-.15.486.982.982 0 0 1-.407.34L8.41 13.765a1.086 1.086 0 0 1-.981-.04.965.965 0 0 1-.35-.336ZM.963 4.978c.171-.007.342.026.496.097l4.033 1.848a.982.982 0 0 1 .407.34c.098.147.15.315.15.486v5.327a.865.865 0 0 1-.127.45.964.964 0 0 1-.351.336 1.087 1.087 0 0 1-.98.04L.557 12.054a.982.982 0 0 1-.407-.34.868.868 0 0 1-.151-.486V5.901c0-.157.044-.312.128-.45a.965.965 0 0 1 .35-.336c.146-.082.313-.13.485-.137Z" fill="currentColor"/></svg>
